packages/tokens/icons/crawlingBot/size24Px.svg

<svg viewBox="0 0 24 24" fill="none" xmlns="http://www.w3.org/2000/svg" width="1em" height="1em"><rect x="12" y="8" width="6" height="6" rx="1" transform="rotate(45 12 8)" stroke="currentColor" stroke-linecap="round" stroke-linejoin="round"/><rect width="2.99998" height="2.99998" rx="1" transform="matrix(0.707107 0.707107 0.707107 -0.707107 9.87866 6.12134)" stroke="currentColor" stroke-linecap="round" stroke-linejoin="round"/><path d="M15.5 11.5L18.2071 8.79288C18.3946 8.60534 18.5 8.35099 18.5 8.08577L18.5 5.5" stroke="currentColor" stroke-linecap="round" stroke-linejoin="round"/><path d="M13.5 9.5L15.2071 7.79289C15.3946 7.60536 15.5 7.351 15.5 7.08579L15.5 2.5" stroke="currentColor" stroke-linecap="round" stroke-linejoin="round"/><path d="M15.5 13L18.2071 15.7071C18.3946 15.8946 18.5 16.149 18.5 16.4142L18.5 18.4166" stroke="currentColor" stroke-linecap="round" stroke-linejoin="round"/><circle cx="18.5" cy="19.5" r="1" transform="rotate(-180 18.5 19.5)" stroke="currentColor" stroke-linecap="round" stroke-linejoin="round"/><circle cx="18.5" cy="4.5" r="1" transform="rotate(-180 18.5 4.5)" stroke="currentColor" stroke-linecap="round" stroke-linejoin="round"/><path d="M13.5 15L15.2071 16.7071C15.3946 16.8946 15.5 17.149 15.5 17.4142L15.5 21.5" stroke="currentColor" stroke-linecap="round" stroke-linejoin="round"/><path d="M8.5 11.5L5.79289 8.79288C5.60536 8.60534 5.5 8.35099 5.5 8.08577L5.5 5.5" stroke="currentColor" stroke-linecap="round" stroke-linejoin="round"/><circle cx="5.5" cy="4" r="1" transform="rotate(-180 5.5 4)" stroke="currentColor" stroke-linecap="round" stroke-linejoin="round"/><path d="M10.5 9.5L8.79289 7.79289C8.60536 7.60536 8.5 7.351 8.5 7.08579L8.5 2.5" stroke="currentColor" stroke-linecap="round" stroke-linejoin="round"/><path d="M8.5 13L5.79289 15.7071C5.60536 15.8946 5.5 16.149 5.5 16.4142L5.5 18.4166" stroke="currentColor" stroke-linecap="round" stroke-linejoin="round"/><circle cx="1" cy="1" r="1" transform="matrix(1 0 0 -1 4.5 20.5)" stroke="currentColor" stroke-linecap="round" stroke-linejoin="round"/><path d="M10.5 15L8.79289 16.7071C8.60536 16.8946 8.5 17.149 8.5 17.4142L8.5 21.5" stroke="currentColor" stroke-linecap="round" stroke-linejoin="round"/></svg>

<svg xmlns="http://www.w3.org/2000/svg" fill="none" viewBox="0 0 24 24" width="1em" height="1em"><rect width="6" height="6" x="12" y="8" stroke="currentColor" stroke-linecap="round" stroke-linejoin="round" rx="1" transform="rotate(45 12 8)"/><rect width="3" height="3" stroke="currentColor" stroke-linecap="round" stroke-linejoin="round" rx="1" transform="scale(1 -1) rotate(-45 -2.45 -14.985)"/><path stroke="currentColor" stroke-linecap="round" stroke-linejoin="round" d="m15.5 11.5 2.707-2.707a1 1 0 0 0 .293-.707V5.5m-5 4 1.707-1.707a1 1 0 0 0 .293-.707V2.5m0 10.5 2.707 2.707a1 1 0 0 1 .293.707v2.003"/><circle cx="18.5" cy="19.5" r="1" stroke="currentColor" stroke-linecap="round" stroke-linejoin="round" transform="rotate(-180 18.5 19.5)"/><circle cx="18.5" cy="4.5" r="1" stroke="currentColor" stroke-linecap="round" stroke-linejoin="round" transform="rotate(-180 18.5 4.5)"/><path stroke="currentColor" stroke-linecap="round" stroke-linejoin="round" d="m13.5 15 1.707 1.707a1 1 0 0 1 .293.707V21.5m-7-10L5.793 8.793a1 1 0 0 1-.293-.707V5.5"/><circle cx="5.5" cy="4" r="1" stroke="currentColor" stroke-linecap="round" stroke-linejoin="round" transform="rotate(-180 5.5 4)"/><path stroke="currentColor" stroke-linecap="round" stroke-linejoin="round" d="M10.5 9.5 8.793 7.793a1 1 0 0 1-.293-.707V2.5m0 10.5-2.707 2.707a1 1 0 0 0-.293.707v2.003"/><circle cx="1" cy="1" r="1" stroke="currentColor" stroke-linecap="round" stroke-linejoin="round" transform="matrix(1 0 0 -1 4.5 20.5)"/><path stroke="currentColor" stroke-linecap="round" stroke-linejoin="round" d="m10.5 15-1.707 1.707a1 1 0 0 0-.293.707V21.5"/></svg>
